!!!COM: Ludwig van Beethoven
!!!CNT: Deutsch
!!!TXO: Deutsch
!!!OTL: "Die Ehre Gottes aus der Natur"
!!!LYR: Gellert, Christian Fu2rchtegott
!!!OPS: Op. 48
!!!ONM: No. 4
!!!ENC: Amanda Harris
!!!YOR: Sa2mtliche Lieder, Band 1
!!!YOR: G. Henle Verlag
!!!ODT: 1801/
!!NB: Vocal melody and text encoded.
**kern	**silbe
*clefG2	*
*k[]	*
*M2/2	*
*MM[majesta2tisch und erhaben]	*
=2	=2
2r	.
4r	.
{4g	{Die
=3	=3
2cc	Him-
2g	-mel
=4	=4
2e	ru2h-
4c	-men
4ee	des
=5	=5
2ee	E-
4dd	-wi-
4cc	-gen
=6	=6
2cc	Eh-
4b}	-re,}
{4g	{ihr
=7	=7
2ff	Schall
2dd	pflanzt
=8	=8
2b	sei-
2g	-nen
=9	=9
2cc	Na-
4.dd	-men
8b	|
=10	=10
2.cc}	fort.}
{4e	{Ihn
=11	=11
2.e	ru2hmt
4e	der
=12	=12
2e	Erd-
4e	-kreis,
4e	ihn
=13	=13
2f	prei-
4f	-sen
4f	die
=14	=14
2f	Mee-
4f	-re;
4f	ver-
=15	=15
2f#	-nimm,
2a	o
=16	=16
2.b-	Mensch,
4g	ihr
=17	=17
2cc	go2tt-
2dd	-lich
=18	=18
2.g}	Wort!}
4r	.
=20	=20
2r	.
4r	.
{4b-	{Wer
=21	=21
2.ee-	tra2gt
4ee-	der
=22	=22
4ee-	Him-
8ee-	-mel
8ee-	un-
4ee-	-za2hl-
8dd	-bar-
8cc	-re
=23	=23
4cc	Ster-
4bn}	-ne?}
2r	.
=24	=24
2r	.
4r	.
{4g	{Wer
=25	=25
2.cc	fu2hrt
4cc	die
=26	=26
4.cc	Sonn'
8cc	aus
4.b	ih-
8cc	-rem
=27	=27
2dd}	Zelt?}
2r	.
=28	=28
2r	.
4r	.
{4g	{Sie
=29	=29
2cc	ko2mmt
2g	und
=30	=30
2en	leuch-
4c	-tet
4ee	und
=31	=31
2ee	lacht
4dd	uns
4cc	von
=32	=32
2cc	fer-
4b}	-ne}
{4g	{und
=33	=33
2ff	la2uft
2dd	den
=34	=34
2.b	Weg
4g	gleich
=35	=35
2cc	als
2dd	ein
=36	=36
2.ee	Held,
4ee	und
=37	=37
2.ee	la2uft
4ee	den
=38	=38
2.ff	Weg
4dd	gleich
=39	=39
2gg	als
2g	ein
=40	=40
2cc}	Held.}
2r	.
*-	*-
